assets/edgeimpulse/mono.svg

<svg viewBox="0 0 24 24" xmlns="http://www.w3.org/2000/svg"><path d="m16.008 10.287h4.51l1.348 3.53h-5.858c-.979 0-1.772-.79-1.772-1.766s.793-1.766 1.772-1.766zm-15.331 1.762a1.77 1.77 0 0 1 1.773-1.766h8.597a1.77 1.77 0 0 1 1.772 1.766c0 .976-.793 1.766-1.772 1.766h-8.597c-.98 0-1.773-.79-1.773-1.766zm23.323 7.564h-19.552a2.515 2.515 0 0 1 -1.93.899 2.514 2.514 0 0 1 -2.518-2.51 2.514 2.514 0 0 1 2.518-2.509c.775 0 1.467.351 1.93.899h18.321zm-4.406-11.958h-15.19a2.51 2.51 0 0 1 -1.886.852 2.514 2.514 0 0 1 -2.518-2.509 2.514 2.514 0 0 1 2.518-2.51c.797 0 1.506.371 1.967.946h13.878z"/></svg>

<svg xmlns="http://www.w3.org/2000/svg" viewBox="0 0 24 24"><path d="M16.008 10.287h4.51l1.348 3.53h-5.858c-.979 0-1.772-.79-1.772-1.766s.793-1.766 1.772-1.766zM.677 12.049a1.77 1.77 0 0 1 1.773-1.766h8.597a1.77 1.77 0 0 1 1.772 1.766c0 .976-.793 1.766-1.772 1.766H2.45c-.98 0-1.773-.79-1.773-1.766M24 19.613H4.448a2.52 2.52 0 0 1-1.93.899A2.514 2.514 0 0 1 0 18.002a2.514 2.514 0 0 1 2.518-2.509c.775 0 1.467.351 1.93.899h18.321zM19.594 7.655H4.404a2.5 2.5 0 0 1-1.886.852A2.514 2.514 0 0 1 0 5.998a2.514 2.514 0 0 1 2.518-2.51c.797 0 1.506.371 1.967.946h13.878z"/></svg>
